svg/arrow/arrows_right_line.svg

<?xml version="1.0" encoding="UTF-8"?>
<svg width="24px" height="24px" viewBox="0 0 24 24" version="1.1" xmlns="http://www.w3.org/2000/svg" xmlns:xlink="http://www.w3.org/1999/xlink">
    <title>arrows_right_line</title>
    <g id="Icon" stroke="none" stroke-width="1" fill="none" fill-rule="evenodd">
        <g id="Arrow" transform="translate(-720.000000, -194.000000)">
            <g id="arrows_right_line" transform="translate(720.000000, 194.000000)">
                <path d="M24,0 L24,24 L0,24 L0,0 L24,0 Z M12.5935,23.2578 L12.5819,23.2595 L12.5109,23.295 L12.4919,23.2987 L12.4767,23.295 L12.4057,23.2595 C12.3958,23.2564 12.387,23.259 12.3821,23.2649 L12.378,23.2758 L12.3609,23.7031 L12.3659,23.7235 L12.3769,23.7357 L12.4805,23.8097 L12.4953,23.8136 L12.5071,23.8097 L12.6107,23.7357 L12.6233,23.7197 L12.6267,23.7031 L12.6096,23.2758 C12.6076,23.2657 12.601,23.2593 12.5935,23.2578 Z M12.8584,23.1453 L12.8445,23.1473 L12.6598,23.2397 L12.6499,23.2499 L12.6472,23.2611 L12.6651,23.6906 L12.6699,23.7034 L12.6784,23.7105 L12.8793,23.8032 C12.8914,23.8069 12.9022,23.803 12.9078,23.7952 L12.9118,23.7812 L12.8777,23.1665 C12.8753,23.1546 12.8674,23.147 12.8584,23.1453 Z M12.143,23.1473 C12.1332,23.1424 12.1222,23.1453 12.1156,23.1526 L12.1099,23.1665 L12.0758,23.7812 C12.0751,23.7927 12.0828,23.8019 12.0926,23.8046 L12.1083,23.8032 L12.3092,23.7105 L12.3186,23.7024 L12.3225,23.6906 L12.3404,23.2611 L12.3372,23.2485 L12.3278,23.2397 L12.143,23.1473 Z" id="MingCute" fill-rule="nonzero"></path>
                <path d="M6.29289,6.29289 C6.68342,5.90237 7.31658,5.90237 7.70711,6.29289 L12.7071,11.2929 C12.8946,11.4804 13,11.7348 13,12 C13,12.2652 12.8946,12.5196 12.7071,12.7071 L7.70711,17.7071 C7.31658,18.0976 6.68342,18.0976 6.29289,17.7071 C5.90237,17.3166 5.90237,16.6834 6.29289,16.2929 L10.5858,12 L6.29289,7.70711 C5.90237,7.31658 5.90237,6.68342 6.29289,6.29289 Z M12.2929,6.29289 C12.6834,5.90237 13.3166,5.90237 13.7071,6.29289 L18.7071,11.2929 C18.8946,11.4804 19,11.7348 19,12 C19,12.2652 18.8946,12.5196 18.7071,12.7071 L13.7071,17.7071 C13.3166,18.0976 12.6834,18.0976 12.2929,17.7071 C11.9024,17.3166 11.9024,16.6834 12.2929,16.2929 L16.5858,12 L12.2929,7.70711 C11.9024,7.31658 11.9024,6.68342 12.2929,6.29289 Z" id="形状" fill="#09244B"></path>
            </g>
        </g>
    </g>
</svg>

<svg xmlns="http://www.w3.org/2000/svg" width="24" height="24"><g fill="none" fill-rule="evenodd"><path d="M24 0v24H0V0h24ZM12.594 23.258l-.012.002-.071.035-.02.004-.014-.004-.071-.036c-.01-.003-.019 0-.024.006l-.004.01-.017.428.005.02.01.013.104.074.015.004.012-.004.104-.074.012-.016.004-.017-.017-.427c-.002-.01-.009-.017-.016-.018Zm.264-.113-.014.002-.184.093-.01.01-.003.011.018.43.005.012.008.008.201.092c.012.004.023 0 .029-.008l.004-.014-.034-.614c-.003-.012-.01-.02-.02-.022Zm-.715.002a.023.023 0 0 0-.027.006l-.006.014-.034.614c0 .012.007.02.017.024l.015-.002.201-.093.01-.008.003-.011.018-.43-.003-.012-.01-.01-.184-.092Z"/><path fill="#09244B" d="M6.293 6.293a1 1 0 0 1 1.414 0l5 5a1 1 0 0 1 0 1.414l-5 5a1 1 0 0 1-1.414-1.414L10.586 12 6.293 7.707a1 1 0 0 1 0-1.414Zm6 0a1 1 0 0 1 1.414 0l5 5a1 1 0 0 1 0 1.414l-5 5a1 1 0 0 1-1.414-1.414L16.586 12l-4.293-4.293a1 1 0 0 1 0-1.414Z"/></g></svg>
